portfolio-htmlcssjs/img/ico_message.svg

<svg fill="none" height="17" viewBox="0 0 16 17" width="16" xmlns="http://www.w3.org/2000/svg"><path d="m.502817 8.41785c-.70625.40037-.640625 1.46802.1125 1.77835l4.384373 1.8157v3.206c0 .5618.45625 1.0149 1.02188 1.0149.30312 0 .59062-.1334.78437-.3662l1.9375-2.306 3.87186 1.6015c.5906.2452 1.275-.1397 1.3719-.7666l2-12.9112c.0594-.37554-.1063-.754184-.4219-.968336s-.7281-.232774-1.0625-.043451zm1.628123.79143 10.67186-6.05522-6.86248 7.61634.0375.031zm10.47186 4.33582-5.20623-2.1571 6.69063-7.42699z" fill="#fff"/></svg>

<svg width="16" height="17" viewBox="0 0 16 17" fill="none" xmlns="http://www.w3.org/2000/svg">
<path d="M0.502817 8.41785C-0.203433 8.81822 -0.137808 9.88587 0.615317 10.1962L4.99969 12.0119V15.2179C4.99969 15.7797 5.45594 16.2328 6.02157 16.2328C6.32469 16.2328 6.61219 16.0994 6.80594 15.8666L8.74344 13.5606L12.6153 15.1621C13.2059 15.4073 13.8903 15.0224 13.9872 14.3955L15.9872 1.4843C16.0466 1.10876 15.8809 0.730116 15.5653 0.515964C15.2497 0.301812 14.8372 0.28319 14.5028 0.472513L0.502817 8.41785ZM2.13094 9.20928L12.8028 3.15406L5.94032 10.7704L5.97782 10.8014L2.13094 9.20928ZM12.6028 13.5451L7.39657 11.388L14.0872 3.96101L12.6028 13.5451Z" fill="white"/>
</svg>
